symbols/web/north_east/materialsymbolsrounded/north_east_wght300_48px.svg

<svg xmlns="http://www.w3.org/2000/svg" height="48" width="48"><path d="M9.5 38.5q-.35-.35-.35-.8 0-.45.35-.8l24.15-24.15H19.8q-.5 0-.825-.325-.325-.325-.325-.825 0-.45.325-.775t.825-.325h16.25q.6 0 1.025.425.425.425.425 1.025V28.2q0 .5-.325.825-.325.325-.825.325-.5 0-.8-.325-.3-.325-.3-.825V14.35L11.1 38.5q-.35.35-.8.35-.45 0-.8-.35Z"/></svg>

<svg xmlns="http://www.w3.org/2000/svg" height="48" width="48"><path d="M9.5 38.5Q9.15 38.15 9.15 37.7Q9.15 37.25 9.5 36.9L33.65 12.75H19.8Q19.3 12.75 18.975 12.425Q18.65 12.1 18.65 11.6Q18.65 11.15 18.975 10.825Q19.3 10.5 19.8 10.5H36.05Q36.65 10.5 37.075 10.925Q37.5 11.35 37.5 11.95V28.2Q37.5 28.7 37.175 29.025Q36.85 29.35 36.35 29.35Q35.85 29.35 35.55 29.025Q35.25 28.7 35.25 28.2V14.35L11.1 38.5Q10.75 38.85 10.3 38.85Q9.85 38.85 9.5 38.5Z"/></svg>
